X:1
T:Title
%%score ( 1 2 ) 3
L:1/8
Q:1/4=110
M:9/8
K:G
V:1 treble nm="Grand Piano, Soprano"
V:2 treble 
V:3 bass nm="Choir Pad, Carson City, J. Sawer, 1885"
V:1
 BA[DG] [B,D]3 [DB]3 | AG[CE] [B,D]3 [B,G]3 | [CF]2 [CG] [CA]3- [CA]2 [CD] | [DG]2 [DA] [DB]6 | %4
w: By~James~M.~Sawers,~1885 * * * *||||
 BA[DG] [B,D]3 [DB]3 | AG[CE] [B,D]3 [B,G]3 | [CF]2 [CG] [CA]3- [CA]2 [CD] | [DB]2 [CA] [B,G]6 | %8
w: ||||
 [EG][^DF][EG] E3 [GB]3 | BA[EG] [^DG]3 [DF]3 | [EG]2 [^DF] E3- E3/2 z/ [EF] | [EG]2 [EA] [^DB]6 | %12
w: ||||
 [Ad]2 [Ad] [Bd]3 [Bd]2 [Ac] | [GB]2 [DA] [B,G]3 [B,D]3 | [B,G]2 [CA] [DB]3- [DB]2 [Dc] | %15
w: |||
 [DB]2 [CA] [B,G]6- | [B,G]3 z3 z3 |] %17
w: ||
V:2
 .D3 z3 z3 | .C3 z3 z3 | x9 | x9 | .D3 z3 z3 | .C3 z3 z3 | x9 | x9 | x9 | .E3 z3 z3 | x9 | x9 | %12
 x9 | x9 | x9 | x9 | x9 |] %17
V:3
 [G,,G,]2 [G,,G,] [G,,G,]3 [G,,G,]3 | [C,E,]2 [C,G,] [G,,G,]3 [G,,G,]3 | %2
 [D,A,]2 [D,G,] [D,F,]3- [D,F,]2 [C,F,] | [B,,G,]2 [D,F,] G,6 | %4
 [G,,G,]2 [G,,G,] [G,,G,]3 [G,,G,]3 | [C,E,]2 [C,G,] [G,,G,]3 [G,,G,]3 | %6
 [D,A,]2 [D,G,] [D,F,]3- [D,F,]2 [D,F,] | [D,G,]2 [D,F,] [G,,G,]6 | E,2 E, E,3 E,3 | %9
 E,2 E, [B,,F,]3 [B,,F,]3 | E,2 E, E,3- E,3/2 z/ E, | E,2 [C,E,] [B,,F,]6 | %12
 [A,,F,]2 [A,,F,] [G,,G,]3- [G,,G,]2 [G,,G,] | [G,,G,]2 [G,,G,] [G,,G,]3 [G,,G,]3 | %14
 [B,,G,]2 [C,E,] [D,G,]3- [D,G,]2 [D,G,] | [D,G,]2 [D,F,] [G,,G,]6- | [G,,G,]3 z3 z3 |] %17

